win-linux/res/icons/title/maximize_unix_normal_light.svg

<?xml version="1.0" encoding="UTF-8" standalone="no"?>
<svg
   width="16"
   height="16"
   viewBox="0 0 16 16"
   fill="none"
   version="1.1"
   id="svg1"
   sodipodi:docname="maximize_unix_normal_light.svg"
   inkscape:version="1.3 (0e150ed6c4, 2023-07-21)"
   xmlns:inkscape="http://www.inkscape.org/namespaces/inkscape"
   xmlns:sodipodi="http://sodipodi.sourceforge.net/DTD/sodipodi-0.dtd"
   xmlns="http://www.w3.org/2000/svg"
   xmlns:svg="http://www.w3.org/2000/svg">
  <defs
     id="defs1" />
  <sodipodi:namedview
     id="namedview1"
     pagecolor="#ffffff"
     bordercolor="#666666"
     borderopacity="1.0"
     inkscape:showpageshadow="2"
     inkscape:pageopacity="0.0"
     inkscape:pagecheckerboard="0"
     inkscape:deskcolor="#d1d1d1"
     inkscape:zoom="17.964932"
     inkscape:cx="6.1230402"
     inkscape:cy="10.71532"
     inkscape:window-width="1920"
     inkscape:window-height="1017"
     inkscape:window-x="0"
     inkscape:window-y="0"
     inkscape:window-maximized="1"
     inkscape:current-layer="svg1" />
  <path
     style="fill:#dadada;fill-opacity:0.2;fill-rule:evenodd;stroke:none;stroke-width:3.42689;stroke-linecap:round;stroke-linejoin:round;stroke-miterlimit:0;paint-order:markers stroke fill"
     id="path2"
     sodipodi:type="arc"
     sodipodi:cx="8"
     sodipodi:cy="8"
     sodipodi:rx="8"
     sodipodi:ry="8"
     sodipodi:start="0"
     sodipodi:end="6.2803127"
     sodipodi:open="true"
     sodipodi:arc-type="arc"
     d="M 16,8 A 8,8 0 0 1 8.0057452,15.999998 8,8 0 0 1 8.2518706e-6,8.0114904 8,8 0 0 1 7.9827644,1.8566705e-5 8,8 0 0 1 15.999967,7.9770192" />
  <path
     d="M 10.4,10.4 V 12 H 4 V 5.6 H 5.6 V 4 H 12 v 6.4 z M 11.2,4.8 H 6.4 v 0.8 h 4 v 4 h 0.8 z M 4.8,6.4 v 4.8 H 9.6 V 6.4 Z"
     fill="#ffffff"
     id="path1"
     style="stroke-width:0.8" />
</svg>

<svg width="16" height="16" version="1.1" viewBox="0 0 16 16" xmlns="http://www.w3.org/2000/svg">
 <path d="m16 8a8 8 0 0 1-7.9943 8 8 8 0 0 1-8.0057-7.9885 8 8 0 0 1 7.9828-8.0115 8 8 0 0 1 8.0172 7.977" fill="#dadada" fill-opacity=".2" fill-rule="evenodd" style="paint-order:markers stroke fill"/>
 <path d="m10.4 10.4v1.6h-6.4v-6.4h1.6v-1.6h6.4v6.4zm0.8-5.6h-4.8v0.8h4v4h0.8zm-6.4 1.6v4.8h4.8v-4.8z" fill="#ffffff" stroke-width=".8"/>
</svg>
